X:128 
T:London Lasses (reel), The 
B:CRE3.106 (CailÃÂÃÂÃÂÃÂ­nÃÂÃÂÃÂÃÂ­ Londan)
F:file ID: cre.3/128lond_L
N:This isn't quite the "session" version.
R:reel
L:1/8
Q:180
M:C
K:G
G2BG AGBd|gedB AGEF|G2BG AGAd|gedB AcBA|
G2BG AGBd|gedB dega|bgag egge|dBAB G2G2:|
|:g2bg agba|gedB defa|g2bg agea|gedB BAA2|
g2bg agba|gedB dega|bgag efge|1 dBAB G3G:|\
[2 dBAB GDEF||

%%%

